icons/lines/filter-square.svg

<svg xmlns="http://www.w3.org/2000/svg" width="24" height="24" viewBox="0 0 24 24" fill="none" stroke="currentColor" stroke-width="2" stroke-linecap="round" stroke-linejoin="round" >
  <path d="M8.16 6.65002H15.83C16.47 6.65002 16.99 7.17002 16.99 7.81002V9.09002C16.99 9.56002 16.7 10.14 16.41 10.43L13.91 12.64C13.56 12.93 13.33 13.51 13.33 13.98V16.48C13.33 16.83 13.1 17.29 12.81 17.47L12 17.98C11.24 18.45 10.2 17.92 10.2 16.99V13.91C10.2 13.5 9.97 12.98 9.73 12.69L7.52 10.36C7.23 10.08 7 9.55002 7 9.20002V7.87002C7 7.17002 7.52 6.65002 8.16 6.65002Z" stroke-miterlimit="10"/>
  <path d="M9 22H15C20 22 22 20 22 15V9C22 4 20 2 15 2H9C4 2 2 4 2 9V15C2 20 4 22 9 22Z"/>
  </svg>

<svg xmlns="http://www.w3.org/2000/svg" width="24" height="24" viewBox="0 0 24 24" fill="none" stroke="currentColor" stroke-width="2" stroke-linecap="round" stroke-linejoin="round">
  <path d="M15 22c5 0 7-2 7-7V9c0-5-2-7-7-7H9C4 2 2 4 2 9v6c0 5 2 7 7 7z" />
  <path d="M15.83 6.65a1.16 1.16 0 0 1 1.16 1.16v1.28c0 .47-.29 1.05-.58 1.34l-2.5 2.21c-.35.29-.58.87-.58 1.34v2.5c0 .35-.23.81-.52.99l-.81.51c-.76.47-1.8-.06-1.8-.99v-3.08c0-.41-.23-.93-.47-1.22l-2.21-2.33C7.23 10.08 7 9.55 7 9.2V7.87c0-.7.52-1.22 1.16-1.22z" />
</svg>
